dist/img/svg/its.svg

<svg width="148" height="31" viewBox="0 0 148 31" fill="none" xmlns="http://www.w3.org/2000/svg">
<g opacity="0.4">
<path d="M7.40283 8.33813H9.43919V22.6455H7.40283V8.33813Z" fill="currentColor" stroke="currentColor"/>
<path d="M18.1302 10.4998H12.6426V8.33813H26.6453V10.4998H21.1989H20.7306V10.9695V22.6456H18.5985V10.9695V10.4998H18.1302Z" fill="currentColor" stroke="currentColor"/>
<path d="M42.9528 10.9152V7.86841H32.9134C29.801 7.86841 28.6056 9.68277 28.6055 12.6119C28.6055 15.5411 30.3222 16.9125 32.9134 16.9125H37.7875L39.3516 16.9119C40.5528 16.9119 40.5876 18.1011 40.5876 18.8146C40.5876 19.5282 40.3117 20.2943 39.3451 20.2943H28.991V23.1153H39.3451C41.9363 23.1153 43.653 21.7438 43.6529 18.8146C43.6529 15.8854 42.4613 14.0931 39.349 14.0931L37.7875 14.0916H32.9134C31.9467 14.0916 31.6709 13.3256 31.6709 12.6119C31.6709 11.8983 31.6709 10.9152 32.8722 10.9152H42.9528Z" fill="currentColor"/>
<path d="M69.4509 8.32983V10.5084H59.3257C58.893 10.5084 58.5201 10.5316 58.2085 10.6018C57.8919 10.6731 57.608 10.7997 57.3876 11.0283C57.1677 11.2565 57.0551 11.5407 56.9947 11.8431C56.9354 12.14 56.9203 12.4877 56.9203 12.8748V18.4995C56.9203 19.1769 57.1012 19.7678 57.5527 20.1798C57.9954 20.5839 58.6154 20.7391 59.3257 20.7391H66.9006H67.369V20.2694V16.912V16.4423H66.9006H63.9779V14.5511H69.4427V22.6455H58.9811C56.8796 22.6455 55.8686 22.2592 55.3618 21.745C54.8612 21.2369 54.7388 20.4926 54.7388 19.4184V11.9001C54.7388 10.5822 54.8862 9.75387 55.3998 9.22097C55.9147 8.68677 56.9177 8.32983 58.9811 8.32983H69.4509Z" fill="currentColor" stroke="currentColor"/>
<path d="M74.9613 18.1115V22.6452H72.9233V8.354H82.6935C84.4752 8.354 85.5128 8.88842 86.1037 9.47661C86.706 10.0763 86.8848 10.7707 86.8848 11.1492V15.1976C86.8848 15.6642 86.7182 16.2582 86.1928 16.7393C85.6667 17.2213 84.7236 17.6418 83.0718 17.6418H82.0527L82.7163 18.4174L86.3341 22.6452H84.8222H83.587L79.6173 17.8129L79.4574 17.6183L79.2074 17.6444C79.1621 17.6491 79.0437 17.6502 78.8648 17.648C78.8133 17.6474 78.7581 17.6465 78.7016 17.6457C78.5808 17.6438 78.4541 17.6418 78.345 17.6418H75.4297H74.9613V18.1115ZM75.4297 10.1734H74.9613V10.6431V15.4915V15.9611H75.4297H82.6935C83.6138 15.9611 84.1984 15.6535 84.5117 15.1499C84.7868 14.708 84.7861 14.2036 84.7858 13.9601C84.7858 13.9524 84.7858 13.9448 84.7858 13.9376V11.9164C84.7858 11.9125 84.7858 11.9084 84.7858 11.9041C84.786 11.7357 84.7866 11.2866 84.4925 10.8833C84.1715 10.4427 83.5958 10.1734 82.6935 10.1734H75.4297Z" fill="currentColor" stroke="currentColor"/>
<path d="M94.6574 8.354H100.556C102.825 8.354 104.823 10.1947 104.823 12.4077V18.7636C104.823 20.9586 102.845 22.6798 100.556 22.6798H94.6574C92.3627 22.6798 90.3574 20.9547 90.3574 18.7636V12.4077C90.3574 10.1987 92.3825 8.354 94.6574 8.354ZM100.556 20.9109C101.229 20.9109 101.795 20.5327 102.175 20.0589C102.556 19.5845 102.797 18.96 102.797 18.351V12.8205C102.797 12.2148 102.559 11.569 102.184 11.0724C101.812 10.5795 101.245 10.158 100.556 10.158H94.6574C93.9708 10.158 93.4041 10.5801 93.0322 11.0719C92.6572 11.5677 92.4152 12.2135 92.4152 12.8205V18.351C92.4152 18.9613 92.6598 19.5858 93.0409 20.0594C93.4211 20.532 93.9867 20.9109 94.6574 20.9109H100.556Z" fill="currentColor" stroke="currentColor"/>
<path d="M120.891 17.7441V8.35394H123.031V18.7562C123.031 20.8988 121.276 22.6452 119.094 22.6452H112.231C110.05 22.6452 108.295 20.8988 108.295 18.7562V8.34741L110.392 8.35275V17.7519C110.392 18.8247 110.595 19.6281 111.165 20.1335C111.72 20.6258 112.511 20.7266 113.378 20.7266H118.154C119.026 20.7266 119.766 20.5736 120.261 20.0331C120.747 19.5047 120.891 18.7178 120.891 17.7441Z" fill="currentColor" stroke="currentColor"/>
<path d="M129.769 15.2302C129.769 15.3771 129.777 15.5159 129.802 15.6546H129.769V15.2302Z" fill="currentColor"/>
<path d="M129.802 10.627C129.777 10.7657 129.769 10.9045 129.769 11.0514V10.627H129.802Z" fill="currentColor"/>
<path d="M129.769 15.2302C129.769 15.3771 129.777 15.5159 129.802 15.6546H129.769V15.2302Z" fill="currentColor"/>
<path d="M129.802 10.627C129.777 10.7657 129.769 10.9045 129.769 11.0514V10.627H129.802Z" fill="currentColor"/>
<path d="M129.063 17.9604H128.594V18.4301V22.6454H126.503V8.32153H136.636C139.351 8.32153 140.597 9.98558 140.597 11.4595V14.9774C140.597 16.407 139.095 17.9604 136.636 17.9604H129.063ZM128.594 15.6549V16.1246H129.063H136.636C137.821 16.1246 138.786 15.1775 138.786 13.9898V12.2921C138.786 11.1044 137.821 10.1573 136.636 10.1573H129.063H128.594V10.627V15.6549Z" fill="currentColor" stroke="currentColor"/>
</g>
</svg>

<svg width="148" height="31" viewBox="0 0 148 31" fill="none" xmlns="http://www.w3.org/2000/svg"><g opacity=".4" fill="currentColor"><path d="M7.403 8.338h2.036v14.307H7.403V8.338zM18.13 10.5h-5.487V8.338h14.002V10.5h-5.914v12.146h-2.133V10.499h-.468z" stroke="currentColor"/><path d="M42.953 10.915V7.868h-10.04c-3.112 0-4.307 1.815-4.307 4.744 0 2.93 1.716 4.3 4.307 4.3h6.439c1.2 0 1.236 1.19 1.236 1.903 0 .713-.276 1.48-1.243 1.48H28.991v2.82h10.354c2.591 0 4.308-1.371 4.308-4.3 0-2.93-1.192-4.722-4.304-4.722l-1.561-.001h-4.875c-.966 0-1.242-.766-1.242-1.48s0-1.697 1.201-1.697h10.08z"/><path d="M69.45 8.33v2.178H59.327c-.433 0-.806.024-1.117.094-.317.071-.601.198-.821.426-.22.229-.333.513-.393.815-.06.297-.075.645-.075 1.032V18.5c0 .677.181 1.268.633 1.68.442.404 1.062.56 1.773.56h8.042v-4.298h-3.391v-1.89h5.465v8.093H58.98c-2.101 0-3.112-.386-3.62-.9-.5-.508-.622-1.252-.622-2.327V11.9c0-1.318.147-2.146.66-2.679.516-.534 1.519-.891 3.582-.891h10.47zm5.511 9.781v4.534h-2.038V8.354h9.77c1.782 0 2.82.534 3.41 1.123.603.6.782 1.294.782 1.672v4.049a2.08 2.08 0 01-.692 1.541c-.526.482-1.47.903-3.121.903h-1.02l.664.775 3.618 4.228h-2.747l-3.97-4.832-.16-.195-.25.026a4.312 4.312 0 01-.342.004l-.163-.002a22.763 22.763 0 00-.357-.004h-3.384v.47zm.469-7.938h-.469v5.788h7.732c.92 0 1.505-.308 1.819-.811.275-.442.274-.946.274-1.19v-2.056c0-.168 0-.617-.293-1.02-.322-.441-.897-.71-1.8-.71H75.43zm19.227-1.819h5.899c2.269 0 4.267 1.84 4.267 4.054v6.356c0 2.195-1.978 3.916-4.267 3.916h-5.899c-2.294 0-4.3-1.725-4.3-3.916v-6.356c0-2.21 2.025-4.054 4.3-4.054zm5.899 12.557c.673 0 1.239-.378 1.619-.852.381-.475.622-1.099.622-1.708v-5.53c0-.606-.238-1.252-.613-1.749-.372-.492-.939-.914-1.628-.914h-5.899c-.686 0-1.253.422-1.625.914-.375.496-.617 1.142-.617 1.748v5.531c0 .61.245 1.235.626 1.708.38.473.946.852 1.616.852h5.899zm20.335-3.167v-9.39h2.14v10.402c0 2.143-1.755 3.89-3.937 3.89h-6.863c-2.181 0-3.936-1.747-3.936-3.89V8.347l2.097.006v9.399c0 1.073.203 1.876.773 2.382.555.492 1.346.593 2.213.593h4.776c.872 0 1.612-.153 2.107-.694.486-.528.63-1.315.63-2.289z" stroke="currentColor"/><path d="M129.769 15.23c0 .147.008.286.033.425h-.033v-.425zm.033-4.603a2.368 2.368 0 00-.033.424v-.424h.033z"/><path d="M129.769 15.23c0 .147.008.286.033.425h-.033v-.425zm.033-4.603a2.368 2.368 0 00-.033.424v-.424h.033z"/><path d="M129.063 17.96h-.469v4.685h-2.091V8.322h10.133c2.715 0 3.961 1.664 3.961 3.138v3.517c0 1.43-1.502 2.983-3.961 2.983h-7.573zm-.469-2.305v.47h8.042c1.185 0 2.15-.947 2.15-2.135v-1.698a2.138 2.138 0 00-2.15-2.135h-8.042v5.498z" stroke="currentColor"/></g></svg>823 12.4077V18.7636C104.823 20.9586 102.845 22.6798 100.556 22.6798H94.6574C92.3627 22.6798 90.3574 20.9547 90.3574 18.7636V12.4077C90.3574 10.1987 92.3825 8.354 94.6574 8.354ZM100.556 20.9109C101.229 20.9109 101.795 20.5327 102.175 20.0589C102.556 19.5845 102.797 18.96 102.797 18.351V12.8205C102.797 12.2148 102.559 11.569 102.184 11.0724C101.812 10.5795 101.245 10.158 100.556 10.158H94.6574C93.9708 10.158 93.4041 10.5801 93.0322 11.0719C92.6572 11.5677 92.4152 12.2135 92.4152 12.8205V18.351C92.4152 18.9613 92.6598 19.5858 93.0409 20.0594C93.4211 20.532 93.9867 20.9109 94.6574 20.9109H100.556Z" fill="currentColor" stroke="currentColor"/>
<path d="M120.891 17.7441V8.35394H123.031V18.7562C123.031 20.8988 121.276 22.6452 119.094 22.6452H112.231C110.05 22.6452 108.295 20.8988 108.295 18.7562V8.34741L110.392 8.35275V17.7519C110.392 18.8247 110.595 19.6281 111.165 20.1335C111.72 20.6258 112.511 20.7266 113.378 20.7266H118.154C119.026 20.7266 119.766 20.5736 120.261 20.0331C120.747 19.5047 120.891 18.7178 120.891 17.7441Z" fill="currentColor" stroke="currentColor"/>
<path d="M129.769 15.2302C129.769 15.3771 129.777 15.5159 129.802 15.6546H129.769V15.2302Z" fill="currentColor"/>
<path d="M129.802 10.627C129.777 10.7657 129.769 10.9045 129.769 11.0514V10.627H129.802Z" fill="currentColor"/>
<path d="M129.769 15.2302C129.769 15.3771 129.777 15.5159 129.802 15.6546H129.769V15.2302Z" fill="currentColor"/>
<path d="M129.802 10.627C129.777 10.7657 129.769 10.9045 129.769 11.0514V10.627H129.802Z" fill="currentColor"/>
<path d="M129.063 17.9604H128.594V18.4301V22.6454H126.503V8.32153H136.636C139.351 8.32153 140.597 9.98558 140.597 11.4595V14.9774C140.597 16.407 139.095 17.9604 136.636 17.9604H129.063ZM128.594 15.6549V16.1246H129.063H136.636C137.821 16.1246 138.786 15.1775 138.786 13.9898V12.2921C138.786 11.1044 137.821 10.1573 136.636 10.1573H129.063H128.594V10.627V15.6549Z" fill="currentColor" stroke="currentColor"/>
</g>
</svg>
